X: 2360
T: the RIVAL
R: Hornpipe.
%R: hornpipe, reel
B: James Kerr "Merry Melodies" v.2 p.39 #360
Z: 2016 John Chambers <jc:trillian.mit.edu>
M: C
L: 1/8
K: G
D2 |:\
GDGB dGBd | gfed cBAG |\
ABcd ecAF |[1 GFAF D2(EF) :|[2 G2G2G2 ||\
(FG) |\
ADFD ADFD |
cDBD A2(GA) |\
BDGD BDGD | dDcD B2D2 |\
GDGB dGBd | gfed cBAG |\
ABcd ecAF | G2G2G2 |]
